X:1
T:The Leftovers Theme
T:The Leftovers Theme
%%score { 1 | 2 }
L:1/8
Q:1/4=60
M:4/4
K:Bb
V:1 treble nm="Klavier" snm="Flgl."
V:2 bass 
V:1
"^\n" z8 | z8 | z2 D2 d2 B2 | ^c2 A2 =c2 BA | z2 D2 d2 B2 | ^c2 GA B2 AG | z2 [Dd]2 [dd']2 [Bb]2 | %7
 [^c^c']2 [Aa]2 [=c=c']2 [Bb][Aa] | z2 [Dd]2 [dd']2 [Bb]2 | [^c^c']2 [Gg][Aa] [Bb]2 [Aa][Gg] |: %10
 g/4d/4B/4G/4g/4d/4B/4G/4 g/4d/4B/4G/4g/4d/4B/4G/4 g/4e/4B/4G/4g/4e/4B/4G/4 g/4e/4B/4G/4g/4e/4B/4G/4 | %11
 a/4=e/4^c/4G/4a/4e/4c/4G/4 a/4e/4c/4G/4a/4e/4c/4G/4 a/4_e/4=c/4G/4a/4e/4c/4G/4 a/4e/4c/4G/4a/4e/4c/4G/4 :| %12
 z2 [DGBd]2 [dgbd']2 [Begb]2 | [^c=eg^c']2 [Acea]2 [=ceg=c']2 [B_egb][Aega] | %14
 z2 [DGBd]2 [dgbd']2 [Begb]2 | [^c=eg^c']2 [Gceg][Acea] [B_egb]2 [Acea][Gceg] | [A^cea]4 [dgbd']4 | %17
 [g'b'd''g'']8 | z8 |] %19
V:2
!fff!!fff!!>(!!ped! !>![G,,,G,,]2 [G,,,G,,]2 [G,,,G,,]2 [G,,,G,,]2!>)! | %1
!p! [G,,,G,,]2 [G,,,G,,]2 [G,,,G,,]2 [G,,,G,,]2!ped-up! | %2
!mf!!ped! G,,/B,,/D,/G,/!ped-up!!ped! G,,/B,,/D,/G,/!ped-up!!ped! G,,/B,,/E,/G,/!ped-up!!ped! G,,/B,,/E,/G,/!ped-up! | %3
!ped! A,,/^C,/=E,/G,/!ped-up!!ped! A,,/C,/E,/G,/!ped-up!!ped! A,,/=C,/_E,/G,/!ped-up!!ped! A,,/C,/E,/G,/!ped-up! | %4
!mf!!ped! G,,/B,,/D,/G,/!ped-up!!ped! G,,/B,,/D,/G,/!ped-up!!ped! G,,/B,,/E,/G,/!ped-up!!ped! G,,/B,,/E,/G,/!ped-up! | %5
!ped! A,,/^C,/=E,/G,/!ped-up!!ped! A,,/C,/E,/G,/!ped-up!!ped! A,,/=C,/_E,/G,/!ped-up!!ped! A,,/C,/E,/G,/!ped-up! | %6
!mf!!ped! G,,/B,,/D,/G,/!ped-up!!ped! G,,/B,,/D,/G,/!ped-up!!ped! G,,/B,,/E,/G,/!ped-up!!ped! G,,/B,,/E,/G,/!ped-up! | %7
!ped! A,,/^C,/=E,/G,/!ped-up!!ped! A,,/C,/E,/G,/!ped-up!!ped! A,,/=C,/_E,/G,/!ped-up!!ped! A,,/C,/E,/G,/ | %8
!mf!!ped! G,,/B,,/D,/G,/!ped-up!!ped! G,,/B,,/D,/G,/!ped-up!!ped! G,,/B,,/E,/G,/!ped-up!!ped! G,,/B,,/E,/G,/!ped-up! | %9
!ped! A,,/^C,/=E,/G,/!ped-up!!ped! A,,/C,/E,/G,/!ped-up!!ped! A,,/=C,/_E,/G,/!ped-up!!ped! A,,/C,/E,/G,/!ped-up! |: %10
!mf!!ped! G,,/B,,/D,/G,/!ped-up!!ped! G,,/B,,/D,/G,/!ped-up!!ped! G,,/B,,/E,/G,/!ped-up!!ped! G,,/B,,/E,/G,/!ped-up! | %11
!ped! A,,/^C,/=E,/G,/!ped-up!!ped! A,,/C,/E,/G,/!ped-up!!ped! A,,/=C,/_E,/G,/!ped-up!!ped! A,,/C,/E,/G,/!ped-up! :| %12
!mf!!ped! G,,/B,,/D,/G,/!ped-up!!ped! G,,/B,,/D,/G,/!ped-up!!ped! G,,/B,,/E,/G,/!ped-up!!ped! G,,/B,,/E,/G,/!ped-up! | %13
!ped! A,,/^C,/=E,/G,/!ped-up!!ped! A,,/C,/E,/G,/!ped-up!!ped! A,,/=C,/_E,/G,/!ped-up!!ped! A,,/C,/E,/G,/!ped-up! | %14
!mf!!ped! G,,/B,,/D,/G,/!ped-up!!ped! G,,/B,,/D,/G,/!ped-up!!ped! G,,/B,,/E,/G,/!ped-up!!ped! G,,/B,,/E,/G,/!ped-up! | %15
!ped! A,,/^C,/=E,/G,/!ped-up!!ped! A,,/C,/E,/G,/!ped-up!!ped! A,,/=C,/_E,/G,/!ped-up!!ped! A,,/C,/E,/G,/!ped-up! | %16
!ped! A,,/C,/E,/G,/!ped-up!!ped! A,,/C,/E,/G,/!ped-up!!ped! A,,/C,/E,/G,/!ped-up!!ped! A,,/C,/E,/G,/!ped-up! | %17
!f!!f!!>(!!ped! [G,,,G,,]2 [G,,,G,,]2 [G,,,G,,]2 [G,,,G,,]2!ped-up! | %18
 [G,,,G,,]2!>)!!ppp! [G,,,G,,]2 z4 |] %19

